X:146
T:Hexham Races,aka. RHu.144c
T:Kenmore’s Awa’,aka. RHu.144c
T:Scotch Set Of Quadrilles.#3. RHu.144c
S:R.Hughes MS,1823,Whitchurch,Shrops.
A:Whitchurch, Shropshire
Z:Tony Weatherall 2006
L:1/8
M:6/8
Q:3/8=120
K:Fmaj
A/G/|F>GA fcA|c2cc2d|F>GA fcA|G2GG2A/G/|!
F>GA fcA|cde fed|c>BA B>AG|F2FF2||!
e|f2c dcA|c>dc c2 e|f2 c dcA|G2GG2e|!
f2c dcA|cde f2 e/d/|c>BA B>AG|F2FF2||!
A|d2e fed|e2 aa2g|gfe def|e2{^g}a A2A|!
d2e fed|e2aa2g|fed A=B^c|e3d2|]

